X: 364
T: Three halfpence a day
C: anon.
O: Ireland
B: Francis O'Neill: "The Dance Music of Ireland" (1907) no. 364
R: Double jig
Z: Transcribed by Frank Nordberg - http://www.musicaviva.com
F: http://www.musicaviva.com/abc/tunes/ireland/oneill-1001/oneill-1001-036
4.abc
m: Tn2 = (3n/o/n/ m/n/
M: 6/8
L: 1/8
K: Ador
B|cBA BA(G|A)GE (GE)D|cBA dB(G|E)AA A2B|cBA BA(G|A)GE (GE)(D|E)FE TE2(D|E
)AA A2:|
|:B|cBc dc(d|e)cA (GE)D|cBc d=f(d|c)AB Tc2d|edc dcB|(cB)(A G)E(D|E)FE T
E2(D|E)AA A2:|
W:
W:
W: From Musica Viva - http://www.musicaviva.com
W: the Internet center for free sheet music downloads.


